www/assets/icons/no_meals.svg

<svg width="24" height="24" viewBox="0 0 24 24" xmlns="http://www.w3.org/2000/svg" fill='currentColor'><path d="M16.705 13.3452V5.34521C16.705 3.58521 18.945 1.34521 21.705 1.34521V17.5152L19.705 15.5152V13.3452H16.705ZM21.195 22.6552L10.725 12.1952C10.395 12.2852 10.065 12.3452 9.70502 12.3452V21.3452H7.70502V12.3452C5.49502 12.3452 3.70502 10.5552 3.70502 8.34521V5.17521L1.39502 2.85521L2.80502 1.44521L22.605 21.2452L21.195 22.6552ZM6.87502 8.34521L5.70502 7.17521V8.34521H6.87502ZM9.70502 1.34521H7.70502V3.51521L9.70502 5.51521V1.34521ZM13.705 8.34521V1.34521H11.705V7.51521L13.555 9.36522C13.645 9.03522 13.705 8.70521 13.705 8.34521Z"/></svg>

<svg xmlns="http://www.w3.org/2000/svg" width="24" height="24" viewBox="0 0 24 24" fill='currentColor'><path d="M16.705 13.345v-8c0-1.76 2.24-4 5-4v16.17l-2-2v-2.17zm4.49 9.31-10.47-10.46c-.33.09-.66.15-1.02.15v9h-2v-9c-2.21 0-4-1.79-4-4v-3.17l-2.31-2.32 1.41-1.41 19.8 19.8zM6.875 8.345l-1.17-1.17v1.17zm2.83-7h-2v2.17l2 2zm4 7v-7h-2v6.17l1.85 1.85c.09-.33.15-.66.15-1.02"/></svg>
